X:1
T:What if I never speed?
T:John Dowland (1563-1626)
T:Set by K. Westphal and modified by C. Höcker - Sep 2019 - CC0
T:Set by K. Westphal and modified by C. Höcker - Sep 2019 - CC0
T:Set by K. Westphal and modified by C. Höcker - Sep 2019 - CC0
Z:Set by K. Westphal and modified by C. Höcker - Sep 2019 - CC0
%%score [ 1 2 3 4 ]
L:1/8
M:4/4
K:C
V:1 treble nm="Soprano"
V:2 treble nm="Alto"
V:3 treble-8 nm="Tenore"
V:4 bass nm="Basso"
V:1
 e2 ee c2 d2 | e6 dc | d2 e3 d c2 | B6 c2 | d2 e2 f2 d2 | e6 (dc) | B2 A2 B2 B2 | A8 | %8
w: What if I ne- ver|speed, Shall  I|straight  yield to des-|pair, And|still on sor- row|feed, That _|can no loss re-|pair;|
w: Oft have I  dreamed of|joy, Yet I|ne- ver felt  the|sweet, But|tir- ed with an-|noy, My _|griefs  each o- ther|greet.|
 e2 ee c2 d2 | e6 dc | d2 e3 d c2 | B6 c2 | d2 e2 f2 d2 | e6 (dc) | B2 A2 B2 B2 | A8 | %16
w: Or shall I  change  my|love, for I|find pow'r to de-|part, and|in my rea- son|prove I _|can  com- mand my|heart?|
w: Oft  have I left my|hope, As  a|wretch by fate  for-|lorn, But|Love aims at one|scope, And _|lost will still re-|turn.|
 B2 ^G2 A2 c2 | BA^G^F E2 e2- | ed d4 ^c2 | d4 z2 d2 | e3 d c2 c2 | d3 c B2 B2 | c2 z2 A2 z2 | %23
w: But if she will|pi- ty my de- sire, And|_ my  love re-|quite, Then|e- ver  shall she|live my  dear  de-|light. Come,|
w: He that once loves|with a true de- sire Ne-|* ver can de-|part. For|Cu- pid is the|king of ev- 'ry|heart. *|
 B2 z2 G2 z2 | ABcd e2 dc | B2 B2 z2 c2 | z2 A2 z2 B2 | z2 G2 ABcd | e2 dc B4 | A8 |] %30
w: come, come,|while I have  a heart  to de-|sire thee. Come,|come, come,|for ei- ther I will|love or ad- mire|thee.|
w: |||||||
V:2
 c2 cB A2 B2 | c6 BA | B2 c3 B A2 | ^G6 A2 | A2 G2 A2 G2 | G6 (GE) | E2 C D2 (B, E2) | ^C8 | %8
w: What if I ne- ver|speed, Shall I|straight yield to des-|pair, And|still on sor- row|feed, That _|can no loss re- *|pair,|
w: Oft have I dreamed of|joy, Yet I|ne- ver felt the|sweet, But|ti- red with an-|noy, My _|griefs each o- ther _|greet.|
 c2 cB A2 B2 | c6 BA | B2 c3 B A2 | ^G6 A2 | A2 G2 A2 G2 | G6 (GE) | E2 C D2 (B, E2) | ^C8 | %16
w: Or shall I change my|love, for I|find pow'r to de-|part, and|in my rea- son|prove I _|can com- mand my _|heart?|
w: Oft have I left my|hope, as a|wretch by fate for-|lorn, But|Love aims at one|scope, And _|lost will still re- *|turn.|
 ^GGEE E2 A2 | ^GcBA G^F E2 | A2 A2 A3 G | ^F2 F2 GG G2 | z2 E2 FF F2 | z2 ^F2 ^G4 | z2 A2 z2 ^F2 | %23
w: But if she will pi- ty,|pi- ty, pi- ty my de- sire,|And my love re-|quite, Then e- ver  shall|she live my  dear|de- light.|Come, come,|
w: He that  once  loves  with a|true, a true, a true de- sire|Ne- ver can de-|part, For Cu- pid is|the king of ev-|'ry heart.||
 z2 G2 z2 ED | CB, A,4 A2- | AA ^G2 A2 z2 | ^F2 z2 G2 z2 | E2 z2 EDCB, | A,2 A3 A ^G2 | A8 |] %30
w: come, while I|have a  heart to|_ de- sire thee.|Come, come,|for ei- ther I will|love or ad- mire|thee.|
w: |||||||
V:3
 a2 ag f2 f2 | g6 ge | g2 g2 e2 e2 | e6 e2 | dc c4 B2 | c6 (BA) | ^G2 A2 A2 G2 | A8 | a2 ag f2 f2 | %9
w: What if I ne- ver|speed, Shall I|straight yield to des-|pair, And|still on sor- row|feed That _|can no loss re-|pair,|Or shall I change my|
w: Oft have I dreamed of|joy Yet I|ne- ver felt the|sweet, But|ti- red  with an-|noy, My _|griefs each o- ther|greet.|Oft have I left my|
 g6 ge | g2 g2 e2 e2 | e6 e2 | dc c4 B2 | c6 (BA) | ^G2 A2 A2 G2 | A8 | eeBB c2 e2 | e3 A B2 BB | %18
w: love, for I|find pow'r to de-|part, and|in my rea- son|prove I _|can com- mand my|heart?|But if she will pi- ty|my de- sire, And  my|
w: hope as a|wretch by fate for-|lorn, But|Love  aims at one|scope, And _|lost will still re-|turn.|He that once loves with a|true de- sire, Ne- ver,|
 d2 ^f2 e3 e | d2 d2 BB B2 | z2 G2 AA A2 | z2 A2 e4 | z2 e2 z2 d2 | z2 d2 z2 c2- | cded c2 BA | %25
w: love, my love re-|quite, Then e- ver shall|she live my dear|de- light.|Come, come,|come, while|_ I have a heart to de-|
w: ne- ver can de-|part, For Cu- pid is|the king of ev-|'ry heart.||||
 (e3 d) ^c2 z2 | d2 z2 d2 z2 | c2 z2 cded | c2 BA e4 | ^c8 |] %30
w: sire _ thee.|Come, come,|for ei- ther I will|love or ad- mire|thee.|
w: |||||
V:4
 A,2 A,E, F,2 D,2 | C,6 G,A, | G,2 E,2 A,2 A,,2 | E,6 (A,G,) | F,2 E,2 D,2 G,2 | C,6 (G,,A,,) | %6
w: What if I ne- ver|speed, Shall I|straight yield to des-|pair, And _|still on sor- row|feed, That _|
w: Oft have I dreamed of|joy Yet I|ne- ver felt the|sweet, But _|ti- red with an-|noy, My _|
 E,2 F,2 E,2 E,2 | A,,8 | A,2 A,E, F,2 D,2 | C,6 G,A, | G,2 E,2 A,2 A,,2 | E,6 (A,G,) | %12
w: can no loss re-|pair,|Or shall I change my|love, for I|find pow'r to de-|part, and *|
w: griefs each o- ther|greet.|Oft have I left my|hope as a|wretch by fate for-|lorn, But *|
 F,2 E,2 D,2 G,2 | C,6 (G,,A,,) | E,2 F,2 E,2 E,2 | A,,8 | E,E,E,E, C,C,A,,A,, | E,6 E,E, | %18
w: in my rea- son|prove I _|can com- mand my|heart?|But if she will pi- ty my de-|sire, And my|
w: Love aims at one|scope, And _|lost will still re-|turn.|He that once loves with a true  de-|sire Ne- ver|
 ^F,3 (G, A,2) A,,2 | z2 D,2 G,G, G,2 | z2 C,2 F,F, F,2 | z2 D,2 E,4 | z2 A,,2 z2 D,2 | %23
w: love re- * quite,|Then e- ver shall|she live my dear|de- light.|Come, come,|
w: can de- * part,|For Cu- pid is|the king of ev-|'ry heart.||
 z2 G,,2 z2 C,B,, | A,,3 B,, C,2 D,D, | E,4 A,,2 z2 | D,2 z2 G,,2 z2 | C,2 z2 A,,A,,A,,B,, | %28
w: come, while  I|have a heart to de-|sire thee.|Come, come,|for ei- ther I will|
w: |||||
 C,2 D,D, E,4 | A,,8 |] %30
w: love or ad- mire|thee.|
w: ||

